X:29
T: Winterrosen
N: Q0145G
O: Mitteleuropa, Deutschland (BRD) , Franken
R: Ballade, Verfuehrung, verlorene Ehre
M: 6/8
L: 1/16
K: G
D2 | G4B2B3AG2 | F4A2c4
A2 | B4d2d3cB2 | B6A4
GB | d4B2B4g2 | d4c2A4
c2 | B4G2d2c2B2 | A6G4

